X:1
T:30 Etudes de Mécanisme
T:30 Etudes de Mécanisme
T:Op. 849, No. 26
T:Carl Czerny
C:Carl Czerny
%%score { 1 | ( 2 3 ) }
L:1/8
Q:1/4=92
M:2/4
K:Bb
V:1 treble nm="Piano" snm="Pno."
V:2 bass 
V:3 bass 
V:1
"^Allegretto vivace"!p!"_leggiero" (6:4:6.d/.d/.d/(d/g/b/ (6:4:6a/^f/d/a/f/.d/) | %1
 (6:4:6.d/.d/.d/(d/g/b/ (6:4:6a/^f/d/a/f/.d/) | %2
 (6:4:6.d'/.d'/.d'/(d'/e'/d'/ (6:4:6.c'/).c'/.c'/(c'/d'/c'/ | %3
 (6:4:6.b/)(d'/c'/b/a/g/"_cresc."!<(! (6:4:6^f/a/f/d/c/.A/) | %4
 (6:4:6.d/.d/.d/(d/g/b/ (6:4:6c'/a/=f/c'/a/.f/) | %5
 (6:4:6.f/.f/.f/(f/b/d'/ (6:4:6=e'/^c'/a/e'/c'/.a/)!<)! | %6
!f!!8va(! (6:4:6.a'/.a'/.a'/(a'/b'/a'/ (6:4:6.g'/).g'/.g'/(g'/a'/g'/ | %7
 (3=f'/g'/a'/!8va)! (3a/=b/^c'/ (3d'/c'/d'/ .d) :: %8
!p! (6:4:6.f/.f/.f/(f/f'/.f/) (6:4:6.f/.f/.f/(f/f'/.f/) | %9
 (6:4:6.f/.f/.f/(f/f'/.f/) (6:4:6.f/.f/.f/(f/f'/.f/) | %10
 (6:4:6.f/.f/.f/(f/f'/.f/) (6:4:6.f/.f/.f/(f/f'/.f/) | %11
 (6:4:6.f/.f/.f/(f/f'/.f/) (6:4:6.f/.f/.f/(f/f'/.f/) | %12
 (6:4:6.f/.f/.f/(f/f'/.f/) (6:4:6.f/.f/.f/(f/f'/.f/) | %13
 (6:4:6.f/.f/.f/(f/f'/.f/) (6:4:6.f/.f/.f/(f/f'/.f/) | %14
 (6:4:6.f/.f/.f/(f/f'/.f/) (6:4:6.f/.f/.f/(f/f'/.f/) | %15
 (6:4:6.f/.f/.f/(f/f'/.f/) (6:4:6.f/.f/.f/(f/f'/.f/) | %16
"_cresc."!<(! (6:4:6.^f/.f/.f/(f/^f'/.f/) (6:4:6.f/.f/.f/(f/f'/.f/) | %17
 (6:4:6.g/.g/.g/(g/g'/.g/) (6:4:6.g/.g/.g/(g/g'/.g/) | %18
 (6:4:6.a/.a/.a/(a/a'/.a/) (6:4:6.a/.a/.a/(a/a'/.a/)!<)! | %19
!f!!8va(! (6:4:6.b/.b/.b/(b/b'/.b/) (6:4:6.b/.b/.b/(b/b'/.b/) | %20
 (6:4:6(b'/a'/c''/b'/a'/g'/!8va)! (6:4:6b/a/c'/b/a/g/ | (6:4:6B/A/c/B/A/G/ (6:4:6=e/G/A/B/A/G/ | %22
 (6:4:6^F/A/d/A/F/.D/)!p! (6:4:6.D/.D/.D/(D/d/.D/) | %23
 (6:4:6.D/.D/.D/(D/d/.D/) (6:4:6(D/^C/D/d/^c/.d/) | %24
"_cresc."!<(! (6:4:6.d/.d/.d/(d/g/b/ (6:4:6a/^f/d/a/f/.d/) | %25
 (6:4:6.d/.d/.d/(d/g/b/ (6:4:6a/^f/d/a/f/.d/)!<)! | %26
!f! (6:4:6.d'/.d'/.d'/(d'/e'/d'/ (6:4:6.c'/).c'/.c'/(c'/d'/c'/ | %27
 (6:4:6.b/)(d'/c'/b/a/g/ (6:4:6^f/a/f/d/c/.A/) | %28
!p! (6:4:6.G/.G/.G/(G/g/G/"_cresc."!<(! (6:4:6.A/).A/.A/(A/a/A/ | %29
 (6:4:6.=B/).B/.B/(B/=b/B/ (6:4:6.c/).c/.c/(c/c'/c/!<)! | %30
!f! (6:4:6.^c/).c/.c/(c/^c'/c/ (6:4:6.d/).d/.d/(d/d'/d/ | %31
 (6:4:6.=e/).e/.e/(e/=e'/e/ (6:4:6.g/).g/.g/(g/g'/g/ | %32
!ff!!8va(! (6:4:6.d'/)(b/d'/g'/d'/g'/"_con fuoco" (6:4:6b'/g'/b'/d''/b'/g'/!8va)! | %33
 (6:4:6d'/b/g/d'/b/g/ (6:4:6d/B/G/d/B/G/ | .D) .[dgb] z .[cd^fa] | .[Bdg] .G, z2 :| %36
V:2
 (G,[B,D]D,[^F,C]) | (G,[B,D]D,[^F,C]) | (B,,[D,G,]A,,[D,^F,] | .[G,,D,]) .[B,,D,G,] .[D,A,] z | %4
 (G,[B,D]=F,[A,E]) |[K:treble] B,[DF]A,[^CG] |[K:bass] (F,[A,D]G,[B,=E]) | %7
[K:treble] .[A,DF] .[A,=EG] .[DF] z ::[K:bass] (D2 C2 | B,2 A,2 | .[D,B,]).[F,C].[B,D].[CE] | %11
 (!>![B,D]2 [A,C]2) | (E2 D2 | C2 =B,2 | .[A,C]).[B,D].[CE].[A,F] | (!>![CE]2 [B,D]2) | CDCD | %17
 B,DB,D | CDCD | B,DB,D | ^C,.[=E,G,B,].[E,G,B,].[E,G,B,] | ^C,.[=E,G,B,]C,.[E,G,B,] | %22
 [D,^F,A,]2 C2 | B,2 A,2 | .G,,.[G,B,D] .D,,.[D,^F,C] | .G,,.[G,B,D] .D,,.[D,^F,C] | %26
 (B,,[D,G,]A,,[D,^F,] | .[G,,D,]) .[B,,D,G,] .[D,A,] z | %28
 (6:4:6(B,,/D,/G,/B,,/D,/G,/ (6:4:6C,/E,/G,/C,/E,/G,/ | %29
 (6:4:6D,/F,/G,/D,/F,/G,/ (6:4:6E,/G,/C/E,/G,/C/ | %30
 (6:4:6E,/G,/_B,/E,/G,/B,/ (6:4:6D,/G,/B,/D,/G,/B,/ | %31
 (6:4:6^C,/G,/B,/C,/G,/B,/ (6:4:6C,/=E,/B,/C,/E,/B,/) | [D,G,B,]4 | %33
 z[K:treble] (3(d/B/G/ .D)[K:bass] (3(D/B,/G,/ | .D,) z .[D,^F,A,C] z | .[G,B,] .G,, z2 :| %36
V:3
 G,2 D,2 | G,2 D,2 | B,,2 A,,2 | x4 | G,2 F,2 |[K:treble] B,2 A,2 |[K:bass] F,2 G,2 | %7
[K:treble] x4 ::[K:bass] B,F,_E,F, | D,F,C,F, | x4 | F,4 | CF,B,F, | A,F,^G,F, | x4 | x4 | %16
 A,2 A,2 | G,2 G,2 | ^F,2 F,2 | G,2 G,2 | ^C,4 | ^C,2 C,2 | x2 A,D, | G,D,^F,D, | x4 | x4 | %26
 B,,2 A,,2 | x4 | B,,B,,C,C, | D,D,E,E, | E,E,D,D, | ^C,C,C,C, | x4 | x[K:treble] x2[K:bass] x | %34
 x4 | x4 :| %36

